brandFactory_export/3.Masa/(2)Cuidar_3Masa.svg

<?xml version="1.0" encoding="UTF-8"?>
<svg width="24px" height="24px" viewBox="0 0 24 24" version="1.1" xmlns="http://www.w3.org/2000/svg" xmlns:xlink="http://www.w3.org/1999/xlink">
    <title>3.Masa/(2)Cuidar_3Masa</title>
    <g id="Symbols" stroke="none" stroke-width="1" fill="none" fill-rule="evenodd">
        <g id="3.Masa/(2)Cuidar_3Masa" fill="#5CB615" fill-rule="nonzero">
            <path d="M10.8571429,14.4067227 C10.3663866,13.8957983 10.0806723,13.5327731 9.7210084,12.9680672 C9.27058824,12.2621849 8.96134454,11.5630252 8.80336134,10.8840336 C8.62857143,10.1478992 8.77310924,9.53613445 9.20336134,9.16302521 C9.45546218,8.94453782 9.79495798,8.81680672 10.1647059,8.79663866 C10.1983193,8.79327731 10.2285714,8.79327731 10.2621849,8.79327731 C10.6218487,8.79327731 10.9882353,8.89411765 11.3277311,9.08571429 C11.4554622,9.15630252 11.5865546,9.23361345 11.7277311,9.3210084 C11.7411765,9.32773109 11.7579832,9.33109244 11.7747899,9.33109244 C11.7915966,9.33109244 11.805042,9.32773109 11.8184874,9.3210084 C11.9630252,9.23697479 12.0941176,9.15966387 12.2218487,9.08571429 C12.5647059,8.89411765 12.9310924,8.79327731 13.287395,8.79327731 C13.3210084,8.79327731 13.3546218,8.79327731 13.3848739,8.79663866 C13.7546218,8.81680672 14.097479,8.94453782 14.3462185,9.16302521 C14.7764706,9.53613445 14.9210084,10.1478992 14.7462185,10.8840336 C14.5882353,11.5596639 14.2789916,12.2621849 13.8285714,12.9680672 C13.4722689,13.5260504 13.1865546,13.8890756 12.7058824,14.3932773 L12.692437,14.4067227 C12.6453782,14.4571429 12.4773109,14.6252101 12.3394958,14.7294118 C12.2184874,14.8168067 12.0806723,14.8806723 11.9462185,14.9109244 C11.9058824,14.9210084 11.8655462,14.9243697 11.8218487,14.9277311 L11.8184874,14.9277311 L11.7344538,14.9277311 L11.7277311,14.9277311 C11.6840336,14.9243697 11.6436975,14.9210084 11.6033613,14.9109244 C11.4655462,14.8806723 11.3277311,14.8201681 11.2067227,14.7294118 C11.0689076,14.6252101 10.9042017,14.4571429 10.8571429,14.4067227 L10.8571429,14.4067227 Z M17.0218487,18.7563025 C17.0588235,18.7226891 17.0823529,18.692437 17.0890756,18.6588235 C17.1092437,18.5915966 17.0722689,18.5210084 17.0117647,18.4067227 C17.005042,18.3966387 16.994958,18.3932773 16.9882353,18.3831933 C16.8672269,18.1915966 16.6689076,18.1210084 16.4806723,18.1882353 L12.9008403,19.4386555 C12.8907563,19.4420168 12.8773109,19.4420168 12.8672269,19.4420168 C12.8403361,19.4453782 12.8134454,19.4487395 12.789916,19.4487395 C12.5042017,19.6268908 12.1882353,19.7277311 11.8453782,19.7277311 L7.36470588,19.7277311 C6.96134454,19.7277311 6.62521008,19.4016807 6.62521008,18.9815126 C6.62521008,18.9378151 6.64201681,18.9008403 6.6487395,18.8605042 C6.65882353,18.8033613 6.66218487,18.7462185 6.68235294,18.692437 C6.69915966,18.6521008 6.73277311,18.6184874 6.75630252,18.5815126 C6.78319328,18.5411765 6.80336134,18.4941176 6.84033613,18.4571429 C6.97478992,18.3226891 7.15966387,18.2386555 7.36134454,18.2386555 L11.8420168,18.2386555 C11.9630252,18.2386555 12.0907563,18.1445378 12.1714286,18.0302521 C12.2184874,17.9663866 12.2554622,17.8957983 12.2554622,17.8285714 L12.2554622,17.8252101 C12.2554622,17.7277311 12.2252101,17.6336134 12.1680672,17.5630252 C12.1210084,17.502521 12.0571429,17.4621849 11.9630252,17.4588235 L11.7243697,17.4621849 C11.0554622,17.4756303 9.75798319,17.502521 8.44033613,16.8773109 C8.25210084,16.7865546 8.06386555,16.6857143 7.87563025,16.5680672 C7.86554622,16.5579832 7.15630252,16.1815126 4.99159664,16.1008403 L4.99159664,16.1042017 L4.98823529,16.1042017 L4.98823529,19.8689076 L8.98487395,21.8084034 L9.14621849,21.8857143 C9.44201681,22.0537815 9.77815126,22.1344538 10.1983193,22.1344538 C10.4302521,22.1344538 10.6285714,22.1008403 10.8134454,22.0537815 C10.9109244,22.0302521 11.0117647,22.0067227 11.092437,21.9697479 C11.1092437,21.9596639 15.0789916,19.9630252 16.6184874,19.0319328 C16.6957983,18.9882353 16.7697479,18.9411765 16.8336134,18.9008403 C16.8705882,18.8739496 16.8907563,18.8571429 16.9176471,18.8369748 C16.9512605,18.8134454 16.9915966,18.7865546 17.0117647,18.7697479 C17.0184874,18.7596639 17.0184874,18.7596639 17.0218487,18.7563025 L17.0218487,18.7563025 Z M2.48067227,17.1831933 C2.87394958,17.1831933 3.16302521,16.8941176 3.16302521,16.4941176 C3.16302521,16.1008403 2.87058824,15.8084034 2.48067227,15.8084034 C2.08739496,15.8084034 1.80168067,16.097479 1.80168067,16.4941176 C1.80168067,16.8941176 2.08739496,17.1831933 2.48067227,17.1831933 Z M18.2823529,17.6403361 C18.2823529,17.6504202 18.3226891,17.7210084 18.3327731,17.7310924 C18.8168067,18.6655462 18.5613445,19.5630252 17.6235294,20.1613445 C16.2151261,21.0588235 11.902521,23.2268908 11.7277311,23.3176471 C11.2739496,23.5260504 10.7731092,23.6268908 10.2016807,23.6268908 C9.51260504,23.6268908 8.93109244,23.4789916 8.4605042,23.2 L4.97478992,21.5193277 C4.88739496,22.4067227 4.14789916,23.112605 3.24369748,23.112605 L1.75798319,23.112605 C0.793277311,23.112605 0.00672268908,22.3159664 0.00672268908,21.3411765 L0.00672268908,15.687395 C0.00672268908,14.712605 0.793277311,13.9159664 1.75798319,13.9159664 L3.24369748,13.9159664 C3.80504202,13.9159664 4.29579832,14.194958 4.62184874,14.6016807 C7.53613445,14.6521008 8.5210084,15.210084 8.68907563,15.3176471 C9.79159664,16.0134454 11.0420168,15.9831933 11.7008403,15.9731092 L11.9966387,15.9731092 C12.8907563,15.9831933 13.6,16.6789916 13.7210084,17.5865546 L16.0033613,16.7798319 C16.8739496,16.4672269 17.8386555,16.8336134 18.2823529,17.6403361 L18.2823529,17.6403361 Z M21.1428571,7.81512605 C21.5361345,7.81512605 21.8218487,7.52605042 21.8218487,7.12605042 C21.8218487,6.72941176 21.5361345,6.43697479 21.1428571,6.43697479 C20.7495798,6.43697479 20.4638655,6.72605042 20.4638655,7.12605042 C20.4638655,7.51932773 20.7529412,7.81512605 21.1428571,7.81512605 Z M18.6352941,7.52268908 L18.6352941,3.75798319 L14.6420168,1.81848739 L14.4806723,1.73781513 C14.1848739,1.5697479 13.8521008,1.48907563 13.4285714,1.48907563 C13.1966387,1.48907563 12.9983193,1.52268908 12.8134454,1.5697479 C12.7159664,1.59327731 12.6184874,1.61680672 12.5378151,1.65378151 C12.5210084,1.66386555 8.5512605,3.6605042 7.01176471,4.59159664 C6.93445378,4.63865546 6.85714286,4.68235294 6.79663866,4.72268908 C6.75630252,4.74957983 6.73613445,4.76638655 6.7092437,4.78655462 C6.6789916,4.81008403 6.63529412,4.83697479 6.61512605,4.85378151 C6.61176471,4.85714286 6.61176471,4.85714286 6.61176471,4.8605042 C6.57478992,4.89411765 6.55462185,4.92773109 6.54453782,4.95798319 C6.52436975,5.02521008 6.56134454,5.09579832 6.62184874,5.21008403 C6.62857143,5.22016807 6.64201681,5.22016807 6.6487395,5.23361345 C6.7697479,5.42521008 6.96806723,5.49579832 7.15294118,5.42857143 L10.7327731,4.17815126 C10.7462185,4.17142857 10.7563025,4.17478992 10.7663866,4.17142857 C10.7932773,4.16806723 10.8235294,4.16470588 10.8436975,4.16470588 C11.1294118,3.98655462 11.4453782,3.88571429 11.7882353,3.88571429 L16.2689076,3.88571429 C16.6722689,3.88571429 17.005042,4.21176471 17.0084034,4.63193277 C17.0084034,4.67563025 16.9915966,4.71260504 16.9848739,4.75294118 C16.9747899,4.81008403 16.9714286,4.86722689 16.9512605,4.9210084 C16.9344538,4.96470588 16.9008403,4.99495798 16.8773109,5.03193277 C16.8504202,5.07226891 16.8302521,5.11932773 16.7932773,5.15630252 C16.6588235,5.2907563 16.4773109,5.37478992 16.2722689,5.37478992 L11.794958,5.37478992 L11.7915966,5.37478992 C11.6739496,5.37478992 11.5462185,5.46890756 11.4621849,5.58319328 C11.4151261,5.64705882 11.3781513,5.71764706 11.3781513,5.78823529 L11.3781513,5.79159664 C11.3781513,5.88907563 11.4084034,5.98655462 11.4655462,6.05378151 C11.512605,6.11428571 11.5764706,6.15462185 11.6672269,6.15798319 L11.9058824,6.15462185 L11.9092437,6.15462185 C12.5781513,6.14117647 13.8756303,6.11092437 15.1932773,6.7394958 C15.3815126,6.8302521 15.5697479,6.93109244 15.7579832,7.0487395 C15.7579832,7.06890756 16.4672269,7.44537815 18.6352941,7.52268908 Z M21.8689076,0.517647059 C22.8336134,0.517647059 23.6235294,1.31428571 23.6235294,2.28907563 L23.6235294,7.94285714 C23.6235294,8.91764706 22.8369748,9.71428571 21.8689076,9.71428571 L20.3831933,9.71428571 C19.8218487,9.71428571 19.3310924,9.43529412 19.005042,9.02857143 C16.0907563,8.97815126 15.1058824,8.42016807 14.9411765,8.31260504 C13.8386555,7.61680672 12.5882353,7.64705882 11.9294118,7.65714286 L11.6336134,7.65714286 C10.7361345,7.64705882 10.0302521,6.9512605 9.9092437,6.04369748 L7.62689076,6.85042017 C6.74957983,7.15966387 5.78487395,6.79327731 5.34117647,5.98655462 C5.34117647,5.97647059 5.30084034,5.90588235 5.2907563,5.89579832 C4.81008403,4.96134454 5.06554622,4.06386555 6,3.46890756 C7.40840336,2.57478992 11.7210084,0.403361345 11.8957983,0.312605042 C12.3495798,0.104201681 12.8504202,0.00336134454 13.4218487,0.00336134454 C14.1109244,0.00336134454 14.692437,0.154621849 15.1663866,0.433613445 L18.6521008,2.11428571 C18.7394958,1.22689076 19.4789916,0.521008403 20.3831933,0.521008403 L21.8689076,0.521008403 L21.8689076,0.517647059 Z" id="(2)Cuidar_3Masa"></path>
        </g>
    </g>
</svg>

<svg width="24" height="24" viewBox="0 0 24 24" xmlns="http://www.w3.org/2000/svg"><path d="M10.857 14.407a8.247 8.247 0 01-1.136-1.439c-.45-.706-.76-1.405-.918-2.084-.174-.736-.03-1.348.4-1.721.252-.218.592-.346.962-.366.033-.004.064-.004.097-.004.36 0 .726.101 1.066.293.127.07.259.148.4.235a.107.107 0 00.09 0l.404-.235c.343-.192.71-.293 1.065-.293.034 0 .068 0 .098.004.37.02.712.148.961.366.43.373.575.985.4 1.721-.158.676-.467 1.378-.917 2.084a8.4 8.4 0 01-1.123 1.425l-.014.014a3.45 3.45 0 01-.353.322 1.098 1.098 0 01-.393.182.74.74 0 01-.124.017H11.728a.74.74 0 01-.125-.017 1.034 1.034 0 01-.396-.182 3.337 3.337 0 01-.35-.322zm6.165 4.35c.037-.034.06-.065.067-.098.02-.067-.017-.138-.077-.252-.007-.01-.017-.014-.024-.024-.12-.191-.32-.262-.507-.195l-3.58 1.25c-.01.004-.024.004-.034.004a.656.656 0 01-.077.007 1.764 1.764 0 01-.945.279h-4.48a.741.741 0 01-.74-.746c0-.044.017-.081.024-.121.01-.058.013-.115.033-.169.017-.04.05-.074.074-.11.027-.04.047-.088.084-.125a.737.737 0 01.521-.218h4.481c.121 0 .249-.094.33-.209a.363.363 0 00.083-.201v-.004a.418.418 0 00-.087-.262.257.257 0 00-.205-.104l-.239.003c-.669.014-1.966.04-3.284-.585a5.861 5.861 0 01-.564-.309c-.01-.01-.72-.386-2.884-.467v.003h-.004v3.765l3.997 1.94.161.077c.296.168.632.248 1.052.248.232 0 .43-.033.615-.08.098-.024.199-.047.28-.084.016-.01 3.986-2.007 5.525-2.938.078-.044.152-.09.216-.131l.084-.064c.033-.024.074-.05.094-.067l.01-.014zM2.48 17.182c.393 0 .682-.289.682-.689a.667.667 0 00-.682-.686.66.66 0 00-.68.686c0 .4.286.69.68.69zm15.801.457c0 .01.04.081.05.091.485.935.23 1.832-.708 2.43-1.409.898-5.721 3.066-5.896 3.157-.454.208-.955.309-1.526.309-.69 0-1.27-.148-1.741-.427l-3.486-1.68c-.088.887-.827 1.593-1.731 1.593H1.758A1.765 1.765 0 01.007 21.34v-5.654c0-.974.786-1.771 1.751-1.771h1.486c.561 0 1.052.279 1.378.686 2.914.05 3.899.608 4.067.716 1.103.695 2.353.665 3.012.655h.296c.894.01 1.603.706 1.724 1.614l2.282-.807a1.876 1.876 0 012.28.86zm2.86-9.825c.394 0 .68-.289.68-.689 0-.397-.286-.689-.68-.689-.392 0-.678.29-.678.69 0 .392.289.688.679.688zm-2.507-.292V3.758l-3.993-1.94-.161-.08c-.296-.168-.629-.249-1.052-.249-.232 0-.43.034-.616.08a1.56 1.56 0 00-.275.085c-.017.01-3.987 2.007-5.526 2.938-.078.047-.155.09-.215.13-.04.028-.06.044-.088.065-.03.023-.074.05-.094.067-.003.003-.003.003-.003.007a.232.232 0 00-.067.097c-.02.067.016.138.077.252.007.01.02.01.027.024.12.191.32.262.504.195l3.58-1.25c.013-.008.023-.004.033-.008a.723.723 0 01.078-.006c.285-.178.601-.28.944-.28h4.48c.404 0 .737.327.74.747 0 .044-.016.08-.023.12-.01.058-.014.115-.034.169-.017.044-.05.074-.074.11-.027.041-.047.088-.084.125a.731.731 0 01-.52.219h-4.481c-.118 0-.246.094-.33.208a.363.363 0 00-.084.205v.004c0 .097.03.195.088.262.047.06.11.1.201.104l.239-.003h.003c.67-.014 1.967-.044 3.284.584.189.091.377.192.565.31 0 .02.71.396 2.877.474zM21.87.518c.965 0 1.755.796 1.755 1.771v5.654c0 .975-.787 1.771-1.755 1.771h-1.486c-.561 0-1.052-.279-1.378-.685-2.914-.05-3.9-.609-4.064-.716-1.102-.696-2.353-.666-3.012-.656h-.295c-.898-.01-1.604-.706-1.725-1.613l-2.282.806a1.887 1.887 0 01-2.286-.863c0-.01-.04-.081-.05-.091-.48-.935-.225-1.832.709-2.427C7.408 2.575 11.721.403 11.896.313c.454-.209.954-.31 1.526-.31.689 0 1.27.152 1.744.43l3.486 1.681c.087-.887.827-1.593 1.731-1.593h1.486V.518z" fill="#5CB615" fill-rule="nonzero"/></svg>
